!!!COM: Schubert, Franz
!!!CNT: Deutscher
!!!TXO: Deutsch
!!!OTL: "Letzte Hoffnung"
!!!OPR: Winterreise
!!!LYR: Mu2ller, Wilhelm
!!!OPS: Opus 89
!!!ONM: No. 16
!!!ODT: 1827/
!!NB: Vocal melody only encoded.
**kern	**silbe
*clefG2	*
*k[b-e-a-]	*
*M3/4	*
*MM[geschwind]	*
=5	=5
{8cc-	{Hie
8a-	und
4.cc-	da
8a-	ist
=6	=6
8f	an
8an	den
4.b-	Ba2u-
8a-}	-men}
=7	=7
{8g	{man-
8f	-ches
8e-	bun-
8f	-te
8.g	Blatt
16f	zu
=8	=8
4e-}	seh'n,}
4r	.
4r	.
=9	=9
{8c-	{und
8a-	ich
4.c-	blei-
8a-	-be
=10	=10
8f	vor
8an	den
4.b-	Ba2u-
8a-}	-men}
=11	=11
{4.g	{oft-
8bn	-mals
8cc	in
8f	Ge-
=12	=12
2f#	-dan-
4f#	-ken
=13	=13
4g}	steh'n.}
4r	.
4r	.
=14	=14
4r	.
4r	.
{8bn	{Schau-
8bn	-e
=15	=15
4.bn	nach
8bn	dem
8bn	ei-
8bn	-nen
=16	=16
4dd	Blat-
4bn}	-te,}
{12bn	{ha2n-
12cc	|
12dd	-ge
=17	=17
4.dd	mei-
8cc	-ne
8an	Hoff-
8dd	-nung
=18	=18
4bn}	dran;}
4r	.
{8dd	{spielt
8dd	der
=19	=19
4.ff	Wind
8ff	mit
8ff	mei-
8ff	-nem
=20	=20
(16ee-	Blat-
16dd)	|
8dd}	-te,}
4r	.
{8ee-	{zittr'
8dd-	ich,
=21	=21
4.cc-	was
8b-	ich
8an	zit-
8ee-	-tern
=22	=22
4dd}	kann.}
4r	.
4r	.
=26	=26
{8b-	{Ach,
8b-	und
4.ee-	fa2llt
8g-	das
=27	=27
8a-	Blatt
8b-	zu
8cc-	Bo-
8c-}	-den,}
4r	.
=29	=29
{8.b-	{fallt
16e-	mit
8.g-	ihm
16b-	die
8.f	Hoff-
16b-	-nung
=30	=30
4g-}	ab,}
4r	.
4r	.
=32	=32
{8ee-	{fall'
8ff	ich
4.gg-	sel-
8g-	-ber
=33	=33
8f	mit
8e-	zu
8d-	Bo-
8c-}	-den,}
4r	.
=35	=35
{(4b-	{wein',
4.ee-	|
8dd)	|
=36	=36
(4dd	wein'
4cc)	|
8r	.
8a-	auf
=37	=37
4.g	mei-
8b-	-ner
12f	Hoff-
12b-	|
12a-	-nung
=38	=38
(4a-	Grab,
4g)}	|}
4r	.
=39	=39
{(4b-	{wein',
4.gg	|
8ee-)	|
=40	=40
(4bn	wein'
4cc)	|
8r	.
8a-	auf
=41	=41
2g	mei-
4b-	-ner
=42	=42
(4f	Hoff-
4.cc-)	|
8b-	-nung
=43	=43
2e-}	Grab.}
4r	.
*-	*-
